src/svg/terminal.svg

<svg height="1000" width="1250.0" xmlns="http://www.w3.org/2000/svg">
    <path d="m503.9 533.1l-379.6 379.6c-18.3 18.3-48 18.3-66.3 0l-44.3-44.2c-18.2-18.3-18.3-47.9-0.1-66.3l300.9-302.2-300.9-302.2c-18.2-18.4-18.1-48 0.1-66.2l44.3-44.3c18.3-18.3 48-18.3 66.3 0l379.6 379.6c18.3 18.3 18.3 47.9 0 66.2z m746.1 357.5c0 25.9-21 46.9-46.9 46.9h-593.7c-25.9 0-46.9-21-46.9-46.9v-62.5c0-25.9 21-46.8 46.9-46.8h593.7c25.9 0 46.9 20.9 46.9 46.8v62.5z" />
  </svg>

<svg height="1000" width="1250" xmlns="http://www.w3.org/2000/svg"><path d="M503.9 533.1L124.3 912.7C106 931 76.3 931 58 912.7L13.7 868.5c-18.2 -18.3 -18.3 -47.9 0 -66.3L314.5 500 13.7 197.8c-18.3 -18.4 -18.2 -48 0 -66.2L58 87.3C76.3 69 106 69 124.3 87.3l379.6 379.6c18.3 18.3 18.3 47.9 0 66.2zM1250 890.6v-62.5c0 -25.9 -21 -46.8 -46.9 -46.8H609.4c-25.9 0 -46.9 20.9 -46.9 46.8v62.5c0 25.9 21 46.9 46.9 46.9h593.7c25.9 0 46.9 -21 46.9 -46.9z"/></svg>
